img/features__item-icon-2.svg

<svg width="100" height="100" viewBox="0 0 100 100" fill="none" xmlns="http://www.w3.org/2000/svg">
<g opacity="0.2">
<circle cx="50" cy="50" r="50" fill="#6DED02"/>
<circle cx="50" cy="50" r="50" stroke="#88BDDA"/>
</g>
<path d="M45 63C54.9411 63 63 54.9411 63 45C63 35.0589 54.9411 27 45 27C35.0589 27 27 35.0589 27 45C27 54.9411 35.0589 63 45 63Z" stroke="black" stroke-miterlimit="10" stroke-linecap="round" stroke-linejoin="round"/>
<path d="M57.8 57.7998L73 72.9998" stroke="black" stroke-miterlimit="10" stroke-linecap="round" stroke-linejoin="round"/>
<path d="M42 47.2002V50.6002L34 54.0002" stroke="black" stroke-miterlimit="10" stroke-linecap="round" stroke-linejoin="round"/>
<path d="M48 47.2002V50.6002L56 54.0002" stroke="black" stroke-miterlimit="10" stroke-linecap="round" stroke-linejoin="round"/>
<path d="M51.4 40.4004C51.4 44.6004 48.6 48.0004 45 48.0004C41.4 48.0004 38.6 44.6004 38.6 40.4004C38.6 36.2004 41.4 32.8004 45 32.8004C48.6 32.6004 51.4 36.0004 51.4 40.4004Z" stroke="black" stroke-miterlimit="10" stroke-linecap="round" stroke-linejoin="round"/>
<path d="M51.4 39.4C51.2 39.4 51 39.4 50.6 39.4C48.6 39.8 47.2 39 46 37C45.4 38.4 43.2 39.4 41.4 39.4C40.6 39.4 39.4 39.2 38.8 38.8" stroke="black" stroke-miterlimit="10" stroke-linecap="round" stroke-linejoin="round"/>
</svg>

<svg width="100" height="100" fill="none" xmlns="http://www.w3.org/2000/svg"><g opacity=".2"><circle cx="50" cy="50" r="50" fill="#6DED02"/><circle cx="50" cy="50" r="50" stroke="#88BDDA"/></g><path d="M45 63c9.941 0 18-8.059 18-18s-8.059-18-18-18-18 8.059-18 18 8.059 18 18 18zM57.8 57.8L73 73" stroke="#000" stroke-miterlimit="10" stroke-linecap="round" stroke-linejoin="round"/><path d="M42 47.2v3.4L34 54M48 47.2v3.4l8 3.4" stroke="#000" stroke-miterlimit="10" stroke-linecap="round" stroke-linejoin="round"/><path d="M51.4 40.4c0 4.2-2.8 7.6-6.4 7.6-3.6 0-6.4-3.4-6.4-7.6 0-4.2 2.8-7.6 6.4-7.6 3.6-.2 6.4 3.2 6.4 7.6z" stroke="#000" stroke-miterlimit="10" stroke-linecap="round" stroke-linejoin="round"/><path d="M51.4 39.4h-.8c-2 .4-3.4-.4-4.6-2.4-.6 1.4-2.8 2.4-4.6 2.4-.8 0-2-.2-2.6-.6" stroke="#000" stroke-miterlimit="10" stroke-linecap="round" stroke-linejoin="round"/></svg>
